assets/Bird/Flat/bird_flat.svg

<svg width="32" height="32" viewBox="0 0 32 32" fill="none" xmlns="http://www.w3.org/2000/svg">
<path d="M6.38815 7.21997L3.31815 8.82997C2.95815 9.01997 2.88815 9.50997 3.18815 9.79997L5.79815 12.27L6.38815 7.21997Z" fill="#F9C23C"/>
<path d="M18.5582 28.5H16.7782L17.9782 22.5H16.4782L15.2782 28.5H11.7781L12.9781 22.5H11.4781L10.2781 28.5H8.47812C7.74812 28.5 7.14812 29.02 7.00812 29.71C6.96812 29.86 7.09812 30 7.24812 30H19.7782C19.9382 30 20.0582 29.86 20.0282 29.71C19.8882 29.02 19.2782 28.5 18.5582 28.5Z" fill="#F9C23C"/>
<path d="M17.5681 6.22C17.4381 5.8 17.2681 5.4 17.0481 5.03H17.6681C18.9581 5.03 19.9981 3.99 19.9981 2.7C19.9981 2.32 19.6781 2 19.2981 2H11.8381C8.65813 2 6.05813 4.48 5.84813 7.61L4.55813 18.79C4.17813 22.1 6.75813 25 10.0881 25H23.8381L23.8348 24.99H29.1181C29.5181 24.99 29.8381 24.67 29.8381 24.27V15.12C29.8381 14.6 29.2881 14.25 28.8081 14.47L21.4662 17.8893L19.1682 11H19.164L17.5681 6.22Z" fill="#CA0B4A"/>
<path d="M10 10C10.5523 10 11 9.55228 11 9C11 8.44772 10.5523 8 10 8C9.44772 8 9 8.44772 9 9C9 9.55228 9.44772 10 10 10Z" fill="#212121"/>
</svg>

<svg xmlns="http://www.w3.org/2000/svg" width="32" height="32" fill="none"><path fill="#F9C23C" d="m6.388 7.22-3.07 1.61c-.36.19-.43.68-.13.97l2.61 2.47.59-5.05ZM18.558 28.5h-1.78l1.2-6h-1.5l-1.2 6h-3.5l1.2-6h-1.5l-1.2 6h-1.8c-.73 0-1.33.52-1.47 1.21-.04.15.09.29.24.29h12.53c.16 0 .28-.14.25-.29a1.51 1.51 0 0 0-1.47-1.21Z"/><path fill="#CA0B4A" d="M17.568 6.22c-.13-.42-.3-.82-.52-1.19h.62c1.29 0 2.33-1.04 2.33-2.33 0-.38-.32-.7-.7-.7h-7.46c-3.18 0-5.78 2.48-5.99 5.61l-1.29 11.18c-.38 3.31 2.2 6.21 5.53 6.21h13.75l-.003-.01h5.283c.4 0 .72-.32.72-.72v-9.15c0-.52-.55-.87-1.03-.65l-7.342 3.42L19.168 11h-.004l-1.596-4.78Z"/><path fill="#212121" d="M10 10a1 1 0 1 0 0-2 1 1 0 0 0 0 2Z"/></svg>
